!!!!SEGMENT: pl-kk--kk-i-3--011-001_anonim--virginitatis-kirie-virginitatis.krn
!!!cenid: 15xx:609
!!!COM: Anonim
!!!COM-rismid: pe30004985
!!!CDT:
!!!CNT:
!!!OPR: [Virginitatis]
!!!OTL: Kirie virginitatis
!!!OMV: 001
!!!PDT:
!!!AGN:
!!!SMS-siglum: PL-Kk
!!!SMS-shelfmark: Kk.I.3
!!!SMS-shelfwork: 011-001 M
!!!SMS-variant:
!!!SMS-altvar:
!!!NIFC-rismid: 1001145493
!!!system-decoration: [(s1,s2,s3)]
**kern	**text	**kern	**text	**kern	**text
*part3	*part3	*part2	*part2	*part1	*part1
*staff3	*staff3	*staff2	*staff2	*staff1	*staff1
*Ibass	*	*Itenor	*	*Ivox	*
*I"Basso	*	*I"Tenore	*	*I"Canto	*
*I'B.	*	*I'T.	*	*I'C.	*
*clefF4	*	*clefC4	*	*clefC3	*
*k[]	*	*k[]	*	*k[]	*
*C:	*	*C:	*	*C:	*
*M2/1	*	*M2/1	*	*M2/1	*
*met(C|)	*	*met(C|)	*	*met(C|)	*
=1-	=1-	=1-	=1-	=1-	=1-
*2\right	*	*2\right	*	*2\right	*
!LO:TX:t=P:problem:w źródle nad pięciolinią adnotacja ".d.A.T"	!	!LO:TX:t=P:problem:w źródle adnotacja ".t." przed pierwszą nutą	!	!	!
!	!	!	!	!LO:TX:t=P:problem:w źródle adnotacja ".t." przed pierwszą nutą	!
2G\	Ki-	1G	Ki-	2d/	Ki-
2E/	.	.	.	1g	-ri-
*lig	*	*lig	*	*	*
1D	ri-	1A	-ri-	.	.
.	.	.	.	2f\	-e
=2-	=2-	=2-	=2-	=2-	=2-
1G	.	1B	.	1g	.
*Xlig	*	*Xlig	*	*	*
1G	-e	1B	-e	1g	.
=3-	=3-	=3-	=3-	=3-	=3-
1D	vir-	1A	Vir-	1f	vir-
1C	-gi-	1c	-gi-	1e	-gi-
=4-	=4-	=4-	=4-	=4-	=4-
1F	-ni-	1c	-ni-	1f	-ni-
*	*	*lig	*	*	*
2G/	-ta-	1B	-ta-	2d/	-ta-
2E/	.	.	.	1e\	.
=5-	=5-	=5-	=5-	=5-	=5-
1F	.	1A	.	.	.
!	!	!	!	!LO:SIC:v:t=custos e	!
.	.	.	.	2d/	.
*	*	*Xlig	*	*	*
!	!	!	!	!LO:LB:g=original	!
!LO:SIC:v:t=custos AA	!	!	!	!	!
1E	-tis	1G	-tis	1e	-tis
!LO:LB:g=original	!	!	!	!	!
=6-	=6-	=6-	=6-	=6-	=6-
1AA	a-	1A	a-	1e	a-
1AA	-ma-	1A	-ma-	2e\	-ma-
.	.	.	.	2f\	-tor
=7-	=7-	=7-	=7-	=7-	=7-
1E	-tor	1G	-tor	2g\	.
.	.	.	.	2G/	.
1D	m-	1F	me-	1A	me-
=8-	=8-	=8-	=8-	=8-	=8-
!	!	!LO:SIC:v:t=custos D	!	!	!
1G	-eli-	1E	-li-	2B/	-li-
.	.	.	.	2c/	.
!	!	!LO:LB:g=original	!	!	!
1F	-te	1D	-te	1d	-te
=9-	=9-	=9-	=9-	=9-	=9-
2F/	fa-	1D	fa-	2d/	fa-
2E/	.	.	.	2e\	-ctor
2D/	-ctor	1A	-ctor	2f\	.
2C/	.	.	.	1g\	et
=10-	=10-	=10-	=10-	=10-	=10-
1D	et	1A	e(t)	.	.
.	.	.	.	2f\	.
!	!	!	!	!LO:SIC:v:t=custos G	!
1GG	cre-	1G	cre-	2g\	cre-
!	!	!	!	!LO:LB:g=original	!
.	.	.	.	2G/	a-
=11-	=11-	=11-	=11-	=11-	=11-
0D	-a-	1A	-a-	2F/	.
.	.	.	.	1G	-tor
.	.	1B	-tor	.	.
.	.	.	.	2F/	.
=12-	=12-	=12-	=12-	=12-	=12-
2C/	-tor	1c	ma-	1G	ma-
2D/	ma-	.	.	.	.
*	*	*lig	*	*	*
1E	ri	1B	-ri-	1G	-ri-
=13-	=13-	=13-	=13-	=13-	=13-
!LO:SIC:v:t=custos E	!	!	!	!	!
1F	.	1A	.	1A	.
*	*	*Xlig	*	*	*
!LO:LB:g=original	!	!	!	!	!
*	*	*lig	*	*	*
1E	.	1G	-e	2B/	-e
.	.	.	.	2G/	.
=14-	=14-	=14-	=14-	=14-	=14-
1D	e-	1F	.	2A/	E-
.	.	.	.	2a\	.
*	*	*Xlig	*	*	*
1E	-ley-	1G	e-	2g\	.
.	.	.	.	2g\	.
=15-	=15-	=15-	=15-	=15-	=15-
1AA	.	1A	.	2e/	.
.	.	.	.	2f\	.
!	!	!	!	!LO:SIC:v:t=custos e	!
2C/	.	2G/	.	2e\	.
!	!	!	!	!LO:LB:g=original	!
2AA/	.	2A/	.	1e\	.
=16-	=16-	=16-	=16-	=16-	=16-
1D	.	1F	-ley-	.	.
.	.	.	.	2d/	-leij-
!	!	!LO:SIC:v:t=custos E	!	!	!
!	!	!	!	!LO:TX:a:t=P:very like terminal long:problem	!
0AA	.	[y1E;>l	-son	[y1el	-3on
=17-	=17-	=17-	=17-	=17-	=17-
.	.	0E_yy	.	0e_yy	.
[y1E;<l	-3on	.	.	.	.
=18-	=18-	=18-	=18-	=18-	=18-
0E]yy	.	0E]yy	.	0e]yy	.
!	!	!LO:PB:g=original	!	!	!
=20-	=20-	=20-	=20-	=20-	=20-
*	*	*lig	*	*	*
!	!	!LO:TX:t=P:problem:w źródle adnotacja ".t." przed pierwszą nutą na nowej stronie	!	!	!
1E	Cri-	1E	Cri-	1G	Cri-
2D/	.	1F	.	1A	.
2D/	.	.	.	.	.
*	*	*Xlig	*	*	*
=21-	=21-	=21-	=21-	=21-	=21-
1F	.	1D	-ste	1A	.
2E/	.	1G	.	2B/	.
2C/	-ste	.	.	1c\	-ste
=22-	=22-	=22-	=22-	=22-	=22-
!LO:SIC:v:t=custos F	!	!	!	!	!
1F	a-	1A	.	.	.
.	.	.	.	2c/	a-
!LO:LB:g=original	!	!	!	!	!
1F	-gi-	1c	a	1A	-gi-
=23-	=23-	=23-	=23-	=23-	=23-
1F	-ge	1c	.	1A	-ge
1C	gi-	1c	.	1e	gi-
=24-	=24-	=24-	=24-	=24-	=24-
!	!	!	!	!LO:SIC:v:t=custos d	!
1C	-gas	1c	.	1e	-gas
!	!	!	!	!LO:LB:g=original	!
*	*	*lig	*	*	*
1G	for-	1B	.	2d/	for-
.	.	.	.	2e\	.
=25-	=25-	=25-	=25-	=25-	=25-
2D/	.	1A	.	2f\	-tis
2F/	.	.	.	1d	.
*	*	*Xlig	*	*	*
1E	-tis	1G	.	.	.
.	.	.	.	2c/	ge
=26-	=26-	=26-	=26-	=26-	=26-
!LO:TX:t=P:problem:kreska oddechu na różnych liniach [rozdzielacz słów / znak oddechu]:global	!	!	!	!	!
1D,>	ge-	1A	.	1d	.
*clefF3	*	*	*	*	*
1G	-nte	1B	.	2d/	.
.	.	.	.	2e/	.
=27-	=27-	=27-	=27-	=27-	=27-
1G	qui	1B	.	2d/	.
.	.	.	.	1g	.
1A	pro	1D	.	.	.
.	.	.	.	2f\	.
=28-	=28-	=28-	=28-	=28-	=28-
1B	ho-	1G	.	2g\	.
.	.	.	.	2f\	.
!	!	!LO:SIC:v:t=custos c	!	!	!
2c\	.	1A	.	2e\	.
2B\	.	.	.	2d/	.
!	!	!LO:LB:g=original	!	!	!
=29-	=29-	=29-	=29-	=29-	=29-
!LO:SIC:v:t=custos G	!	!	!	!LO:SIC:v:t=custos B	!
2A/	-mi	1c	.	2c/	.
!LO:PB:g=original	!	!	!	!LO:PB:g=original	!
2G/	.	.	.	2B/	.
2F/	.	1c	.	2A/	.
2E/	.	.	.	2G/	.
=30-	=30-	=30-	=30-	=30-	=30-
1F	.	1c	.	1A	.
2C/	.	1c	.	1G	.
2D/	.	.	.	.	.
=31-	=31-	=31-	=31-	=31-	=31-
*	*	*lig	*	*	*
1E	.	1B	.	1G	.
1F	.	1A	.	2c/	.
.	.	.	.	2d/	.
*	*	*Xlig	*	*	*
=32-	=32-	=32-	=32-	=32-	=32-
1E	.	1G	.	1e	.
1D	.	1A	.	1f	.
=33-	=33-	=33-	=33-	=33-	=33-
2C/	.	1A	.	1e	.
1c	.	.	.	.	.
.	.	1G	.	1e	.
1B\	.	.	.	.	.
=34-	=34-	=34-	=34-	=34-	=34-
.	.	1F	.	1d	.
1A	.	.	.	.	.
.	.	1E	.	1e	.
2G/	.	.	.	.	.
=35-	=35-	=35-	=35-	=35-	=35-
1A	.	1D	.	1f	.
1F	.	1D	.	1d	.
=36-	=36-	=36-	=36-	=36-	=36-
!	!	!	!	!LO:SIC:v:t=custos c	!
2F/	.	1A	.	2c/	.
!LO:LB:g=original	!	!	!	!LO:LB:g=original	!
2D/	.	.	.	2c/	.
1F	.	1A	.	1d	.
=37-	=37-	=37-	=37-	=37-	=37-
1E	.	1G	.	2e/	.
.	.	.	.	1f	.
!	!	!LO:SIC:v:t=custos B	!	!	!
1D	.	1A	.	.	.
.	.	.	.	2d/	.
!	!	!LO:LB:g=original	!	!	!
=38-	=38-	=38-	=38-	=38-	=38-
1G	.	1B	.	1e	.
1A	.	1c	.	2f\	.
.	.	.	.	2g\	.
=39-	=39-	=39-	=39-	=39-	=39-
*	*	*lig	*	*	*
1G	.	1B	.	1e	.
1F	.	1A	.	1d	.
*	*	*Xlig	*	*	*
=40-	=40-	=40-	=40-	=40-	=40-
*	*	*lig	*	*	*
1E	.	1G	.	2c/	.
.	.	.	.	2d/	.
1D	.	1F	.	1f	.
*	*	*Xlig	*	*	*
=41-	=41-	=41-	=41-	=41-	=41-
*	*	*lig	*	*	*
1C	.	1G	.	1e	.
1F	.	1A	.	2d/	.
.	.	.	.	[y2e;<\l	.
*	*	*Xlig	*	*	*
=42-	=42-	=42-	=42-	=42-	=42-
1E	.	0G	.	0e_yy	.
2E/	.	.	.	.	.
2F/	.	.	.	.	.
=43-	=43-	=43-	=43-	=43-	=43-
2G/	.	[y0E;>l	.	0e_yy	.
2A\	.	.	.	.	.
2B\	.	.	.	.	.
!LO:LB:g=original	!	!	!	!	!
1c\	.	.	.	.	.
=44-	=44-	=44-	=44-	=44-	=44-
.	.	0E_yy	.	0e_yy	.
2B\	.	.	.	.	.
[y1B;<l	.	.	.	.	.
=45-	=45-	=45-	=45-	=45-	=45-
0B]yy	.	0E]yy	.	0e]yy	.
!	!	!	!	!LO:LB:g=original	!
=47-	=47-	=47-	=47-	=47-	=47-
*	*	*lig	*	*	*
2A\	Ki-	1c	Ki-	2e/	Ki-
2F/	.	.	.	1f	.
1G	-ri-	1B	.	.	.
.	.	.	.	2e/	-ri-
*	*	*Xlig	*	*	*
=48-	=48-	=48-	=48-	=48-	=48-
*	*	*lig	*	*	*
2F/	.	1c	-ri-	1f	.
2E/	.	.	.	.	.
!	!	!	!	!LO:TX:t=P:problem:kreska oddechu na różnych liniach [rozdzielacz słów / znak oddechu]:global	!
2D/	-e	1d	.	1f,<	-e
2C/	.	.	.	.	.
*	*	*Xlig	*	*	*
=49-	=49-	=49-	=49-	=49-	=49-
2BB,</	.	1d	-e	1g	qvi
*clefF4	*	*	*	*	*
2AA/	.	.	.	.	.
1GG	qui	1B	qvi	1g	in-
!LO:LB:g=original	!	!	!	!	!
=50-	=50-	=50-	=50-	=50-	=50-
1GG	in-	1d	in-	2g\	-car-
.	.	.	.	2f\	.
!	!	!LO:SIC:v:t=custos B	!	!	!
1C	-car-	1c	-car-	2e\	.
.	.	.	.	2c/	.
!	!	!LO:LB:g=original	!	!	!
=51-	=51-	=51-	=51-	=51-	=51-
*	*	*lig	*	*	*
1GG	-na-	1B	-na-	1d	-na-
1D	.	1A	.	2d/	.
.	.	.	.	2c/	.
*	*	*Xlig	*	*	*
=52-	=52-	=52-	=52-	=52-	=52-
1GG	-tus	1G	-tus	2B/	-tus
.	.	.	.	2A/	.
1GG	de	1B	de	1G	de
!	!	!	!	!LO:LB:g=original	!
=53-	=53-	=53-	=53-	=53-	=53-
1C	ma-	1c	ma-	1G	ma-
1BB	-ri-	1d	-ri-	1G	-ri-
=54-	=54-	=54-	=54-	=54-	=54-
1GG	-e	1B	-e	1G,<	-e
1GG	ven-	1d	ven-	1g	ven-
=55-	=55-	=55-	=55-	=55-	=55-
1G	-tre	1c	-tre	1e	-tre
*	*	*lig	*	*	*
1G	na-	1B	na-	2d/	na-
.	.	.	.	2e\	.
=56-	=56-	=56-	=56-	=56-	=56-
1F	.	1A	.	2f\	.
.	.	.	.	2d/	.
*	*	*Xlig	*	*	*
1E	.	1G	-tus	1g,<	-tus
=57-	=57-	=57-	=57-	=57-	=57-
1D	-tus	1A	nos-	1f	nos-
2D/	sub	1A	-tra	2f\	.
2AA/	.	.	.	2c,</	-tra
=58-	=58-	=58-	=58-	=58-	=58-
2BB/	no-	1G	sub	2d/	sub
!LO:LB:g=original	!	!	!	!	!
2C/	.	.	.	2e/	.
1D	-stra	1F	spe-	2f\	.
!	!	!	!	!LO:SIC:v:t=custos c	!
.	.	.	.	1d\	spe-
!	!	!	!	!LO:LB:g=original	!
=59-	=59-	=59-	=59-	=59-	=59-
1AA	spe-	1E	-ci-	.	.
.	.	.	.	2c/	-ci-
!	!	!LO:SIC:v:t=custos D	!	!	!
2BB/	-ci-	1D	-e	1d,<	-e
2AA/	.	.	.	.	.
!	!	!LO:LB:g=original	!	!	!
=60-	=60-	=60-	=60-	=60-	=60-
1BB	-e	1D	.	1d	cor-
2AA/	cor	1A	.	2e\	-pus
1FF/	.	.	.	1f\	e-
=61-	=61-	=61-	=61-	=61-	=61-
.	.	1A	.	.	.
2FF/	.	.	.	2f\	.
2GG/	.	1G	.	2d/	-le-
1GG/	.	.	.	2e\	.
=62-	=62-	=62-	=62-	=62-	=62-
.	.	1A	.	1f	-gi-
2FF/	.	.	.	.	.
2GG/	.	1B	.	2d/	ſti
1G\	.	.	.	2e/	.
=63-	=63-	=63-	=63-	=63-	=63-
.	.	1c	.	1f	ma-
2F\	.	.	.	.	.
*	*	*lig	*	*	*
1G	.	1B	.	1d	-ri-
=64-	=64-	=64-	=64-	=64-	=64-
1D	.	1A	.	2d/	.
.	.	.	.	1d	-e
*	*	*Xlig	*	*	*
*	*	*lig	*	*	*
1E	.	1G	.	.	.
.	.	.	.	2c/	.
!LO:PB:g=original	!	!	!	!	!
=65-	=65-	=65-	=65-	=65-	=65-
1D	.	1F	.	2d/	E-
!	!	!	!	!LO:PB:g=original	!
.	.	.	.	2f\	.
*	*	*Xlig	*	*	*
*	*	*lig	*	*	*
2C/	.	1G	.	2e/	.
2E/	.	.	.	1g\	.
=66-	=66-	=66-	=66-	=66-	=66-
1D	.	1A	.	.	.
.	.	.	.	2f\	.
*	*	*Xlig	*	*lig	*
1GG	.	0G	.	1g	-leÿ-
=67-	=67-	=67-	=67-	=67-	=67-
1C	.	.	.	1e	.
*	*	*	*	*Xlig	*
2C/	.	[y1E;>l	.	[y1e;<l	-3on
2D/	.	.	.	.	.
=68-	=68-	=68-	=68-	=68-	=68-
2E\	.	0E_yy	.	0e_yy	.
2F\	.	.	.	.	.
[y1G;<l	.	.	.	.	.
=69-	=69-	=69-	=69-	=69-	=69-
0G]yy	.	0E]yy	.	0e]yy	.
==	==	==	==	==	==
*-	*-	*-	*-	*-	*-
!!title: @{OTL};
!!!RDF**kern: > = above
!!!RDF**kern: < = below
!!!RDF**kern: | = vertical stroke
!!!RDF**kern: N = linked
!!!RDF**kern: i = editorial accidental
!!!RDF**kern: l = terminal long
!!!ENC: Filip Voros
!!!END: 2021-12-30
!!!EED: Wojciech Jakubiak-Danek
!!!EST: 2022-01-02
!!!URL-scan: http://repozytorium.nifc.pl/skany/pl-kk-nut--i-3
!!!ONB-nifc: UWAGA: Discantus (s. 58r-59r, skan 0060-0061), Tenor (s. 39v-40r, skan 0212), Bassus (s. 54r-55r, skan 0357-0358)
